#define close_width 24
#define close_height 24
static unsigned char close_bits[] = {
  0x00, 0x00, 0x00, 0x00, 0x00, 0x00, 0x00, 0x00, 0x00, 0x38, 0x00, 0x1c,
  0x78, 0x00, 0x1e, 0xf8, 0x00, 0x1f, 0xf0, 0x81, 0x0f, 0xe0, 0xc3, 0x07,
  0xc0, 0xe7, 0x03, 0x80, 0xff, 0x01, 0x00, 0xff, 0x00, 0x00, 0x7e, 0x00,
  0x00, 0x7e, 0x00, 0x00, 0xff, 0x00, 0x80, 0xff, 0x01, 0xc0, 0xe7, 0x03,
  0xe0, 0xc3, 0x07, 0xf0, 0x81, 0x0f, 0xf8, 0x00, 0x1f, 0x78, 0x00, 0x1e,
  0x38, 0x00, 0x1c, 0x00, 0x00, 0x00, 0x00, 0x00, 0x00, 0x00, 0x00, 0x00
};
